X:94
T:Ridmarsch efter Byss-Kalle
R:Slängpolska
B:[[http://www.smus.se/earkiv/fmk/browselarge.php?lang=sw&katalogid=M+6&bildnr=00014|Folkmusikkommissionen och spelmansböcker  - M 6 (bild 14/16)]]
B:Jämför [[http://www.smus.se/earkiv/fmk/browselarge.php?lang=sw&katalogid=M+154a&bildnr=00194|SMUS - katalog M154a bild 194]]
B:Jämför [[http://www.smus.se/earkiv/fmk/browselarge.php?lang=sw&katalogid=M+6&bildnr=00014|SMUS - katalog M6 bild 14]] nedtecknad av [[Personer/Johan Lundin]] efter Byss-Kalle.
Z:Nils L
O:Uppland
S:efter Byss-Kalle
M:3/4
L:1/16
K:G
GABc d2dB d2dB|dBdB dBde d2dB|cAcA cAce c2cA|BGBG BGBd B2BG|
GABc d2Ac BAGF|GFGB AGFE D4::D2DG E2EG F2FA|G2GB E2EG F2D2|D2^CD E2E2 D2D2|
B,2B,2 CB,A,C B,2 z2|D2DG E2EG F2FA|GFGB A4 G4::GDGD ADAD BDBD|GDGD ADAD B4|
GDGD ADAD BDBD|GDGD ADAD B4|D2DG E2EG F2FA|GFGB A4 G4:|
(:musicend:)
(:music:)
